src/assets/images/logo.svg

<?xml version="1.0" encoding="UTF-8"?>
<svg width="37px" height="35px" viewBox="0 0 37 35" version="1.1" xmlns="http://www.w3.org/2000/svg" xmlns:xlink="http://www.w3.org/1999/xlink">
    <!-- Generator: Sketch 52.4 (67378) - http://www.bohemiancoding.com/sketch -->
    <title>Recurso 2</title>
    <desc>Created with Sketch.</desc>
    <g id="Page-1" stroke="none" stroke-width="1" fill="none" fill-rule="evenodd">
        <g id="Catálogo-opc1" transform="translate(-697.000000, -29.000000)" fill="#00D0D2" fill-rule="nonzero">
            <g id="Group-5" transform="translate(-4.000000, 1.000000)">
                <g id="Recurso-2" transform="translate(701.000000, 28.000000)">
                    <path d="M36.5010311,12.2446954 C36.0531033,11.6005904 35.3372248,11.218863 34.5748167,11.2175813 L12.7193904,11.2175813 C12.6858131,11.1322806 12.6533551,11.0458114 12.6208971,10.9605106 C12.2000624,9.89016191 11.7646775,8.7835896 11.4020433,7.67234327 C10.5379889,5.02451554 8.70131383,2.87213306 5.9412646,1.273621 L5.88642177,1.24557692 C4.58810177,0.675347474 3.16218826,0.130825089 1.57958096,0.0163117975 C1.05913372,-0.0210802976 0.565548269,-0.0245858066 0.245445236,0.350503648 C-0.0746577978,0.725593102 -0.0209342118,1.2350604 0.0697243397,1.77607727 C0.293572615,3.11401318 0.787158061,4.34678381 1.27178958,5.49892774 L1.31543999,5.58305996 C3.4744566,9.0605248 6.4471617,11.0832034 10.1473737,11.5961763 C10.2850404,11.6148723 10.3633873,11.6627809 10.5447044,12.0378704 C11.1765252,13.3146234 11.6690899,14.6613787 12.0131491,16.0528466 C12.5960842,18.4365762 12.7366525,20.9147556 12.4272684,23.3536532 C12.4272684,23.3641697 12.4272684,23.3746862 12.4216722,23.3863712 C12.1649782,24.7261116 11.803368,26.04159 11.340485,27.3195522 C11.0108569,28.2702286 10.6170137,29.1952806 10.1619238,30.0877358 C10.1347629,30.1329707 10.1108213,30.1802275 10.0902924,30.2291246 L10.0902924,30.2349672 C10.0902924,30.2349672 10.0902924,30.2349672 10.0902924,30.2419782 C9.805948,30.8469904 10.0452239,31.5781018 10.6247301,31.8749611 C11.2042363,32.1718204 11.9045256,31.9220131 12.18887,31.3170009 L12.2056586,31.2831143 C12.5156884,30.6287527 12.2851247,31.0622673 12.5067345,30.5820125 C13.1282558,29.2816054 13.6318708,27.9233384 14.0109949,26.5249702 L31.5472688,26.5249702 C33.0524935,26.5087861 34.3524414,25.4213188 34.6956948,23.8911645 L36.9218659,14.4823786 C37.1095695,13.7083238 36.9551407,12.8871871 36.5010311,12.2446954 Z M8.91844666,8.94484301 C7.23063066,8.27529081 3.33007447,6.39400102 2.58577895,3.09414863 C2.55705637,2.9550047 2.59907842,2.81023203 2.69695191,2.71113999 C2.79482541,2.61204795 2.93471908,2.57264002 3.06705274,2.60688289 C7.0963217,3.60712143 8.81883417,6.86373922 9.42322452,8.40499464 C9.48248105,8.55662411 9.44993413,8.73050664 9.34036146,8.84769212 C9.23078878,8.96487759 9.06506926,9.00303647 8.91844666,8.94484301 Z M35.3571664,14.041853 L33.1287569,23.4494704 C32.953799,24.2157904 32.2995981,24.7578419 31.5450303,24.7616992 L14.4105641,24.7616992 C14.4295912,24.658871 14.4474991,24.5548742 14.4642877,24.452046 C14.599097,23.6350986 14.6928684,22.8113463 14.7452173,21.9841677 L21.6005707,21.9841677 C21.8826195,21.9841677 22.4187361,21.5529901 22.4187361,21.0213212 C22.4187361,20.4896524 21.8826195,20.0584748 21.6005707,20.0584748 L14.7944639,20.0584748 C14.7830232,19.1959973 14.7202245,18.3350969 14.6064313,17.4807572 L25.4798613,17.4807572 C25.7932489,17.4807572 26.355108,17.0495796 26.355108,16.5179108 C26.355108,15.9862419 25.7954874,15.5550643 25.4798613,15.5550643 L14.2426779,15.5550643 C14.0621101,14.8131371 13.8278896,14.0865804 13.5420328,13.3816488 C13.4894284,13.2507765 13.4379433,13.1175671 13.3864582,12.9855253 L34.5748167,12.9855263 C34.8295998,12.9851266 35.0692064,13.11194 35.2194997,13.3267292 C35.3671276,13.530862 35.4177882,13.7940239 35.3571664,14.041853 Z" id="Shape"></path>
                    <path d="M14.0455507,8.69381589 C14.0647602,9.16660945 14.1265516,9.63434877 14.2295228,10.0864194 C14.3112882,10.4099413 14.4126062,10.816168 14.6738999,10.9511715 L14.6961188,10.9633339 C14.9574125,11.0849587 15.2080412,10.8842778 15.4622249,10.6507583 C16.52873,9.67046273 17.266396,8.37759151 17.6476716,6.80498335 C18.0858274,5.25791639 18.1151563,3.61963086 17.736547,1.9399929 C17.6476716,1.55200991 17.5419098,1.16524317 17.269951,1.03753717 C16.9979922,0.909831175 16.7366985,1.12997199 16.4931798,1.36714028 C14.6454598,3.16110551 13.8162521,5.56319454 14.0339969,8.51624374 L14.0455507,8.69381589 Z M16.5456163,3.17205173 C16.5983597,3.09198671 16.6810604,3.0630526 16.7554119,3.09865149 C16.8297635,3.13425037 16.8812444,3.2274295 16.8860092,3.33502891 C16.9233369,4.37370437 16.8193526,5.29683631 16.5749452,6.08739726 L16.5705014,6.10320848 L16.5705014,6.11780345 C16.2834338,7.2124263 15.895937,8.14893696 15.4542261,8.83490062 C15.40148,8.91595067 15.3181826,8.94536961 15.2433629,8.90937322 C15.1685431,8.87337682 15.1170239,8.77909647 15.1129445,8.67070719 C15.0285129,6.56051758 15.5022189,4.74952489 16.5456163,3.17205173 Z" id="Shape"></path>
                    <path d="M9.9973061,13.8394431 C10.0314345,13.4091528 9.73601076,13.0670719 9.41072471,12.7637172 C7.10919263,10.6348556 3.16416613,10.3971202 0.617336373,12.2473688 C0.470157769,12.3549414 0.0232893989,12.6776591 0.000892654763,13.1929319 C-0.0215040893,13.7082046 0.383770328,14.0535126 0.517084281,14.1707667 C1.70742,15.2106174 3.19139893,15.8472653 4.75966752,15.990895 L4.78952985,15.990895 C6.45755402,16.0672715 7.96666797,15.6627986 9.26887867,14.7903848 C9.62935959,14.5515737 9.96317773,14.2697335 9.9973061,13.8394431 Z M7.40461635,13.8641848 C6.58893621,14.0621679 5.74827944,14.1347017 4.91111217,14.07933 C4.09444352,14.0304386 3.29096633,13.8488118 2.53172474,13.541467 C2.43762202,13.5083536 2.37696553,13.4160049 2.38343012,13.3156904 C2.3898947,13.215376 2.46189323,13.1317244 2.55945404,13.1111767 C4.1766063,12.6950826 5.88301812,12.8080934 7.43234565,13.4338945 C7.52503798,13.468277 7.58424787,13.5600824 7.57784188,13.6594876 C7.57143589,13.7588927 7.50094153,13.8421946 7.40461635,13.8641848 Z" id="Shape"></path>
                    <path d="M30.6316746,28 C30.476885,28.0004039 30.3222981,28.011669 30.1689679,28.0337185 L18.8283287,28.0337185 C18.674635,28.0116796 18.5196892,28.0004147 18.3645409,28 C16.8626435,28.0010472 15.5430779,29.0362796 15.1300716,30.5375226 C14.7170653,32.0387655 15.3105301,33.6428481 16.5847501,34.4693891 C17.85897,35.2959302 19.5056942,35.1449784 20.6211381,34.0993817 C21.7365821,33.0537851 22.0509049,31.3664875 21.3915943,29.9635417 L27.6154322,29.9635417 C26.9580504,31.3652346 27.2732705,33.0501025 28.3880878,34.0934261 C29.5029051,35.1367496 31.1476302,35.2861347 32.4195756,34.4595931 C33.6915209,33.6330515 34.2829858,32.0305348 33.8693519,30.531565 C33.4557179,29.0325951 32.1370488,27.9997932 30.63708,28 L30.6316746,28 Z M18.3645409,32.7677983 C17.6886579,32.7677983 17.1407465,32.1981648 17.1407465,31.4954863 C17.1407465,30.7928077 17.6886579,30.2231742 18.3645409,30.2231742 C19.0404239,30.2231742 19.5883353,30.7928077 19.5883353,31.4954863 C19.5871452,32.1976517 19.0399303,32.766561 18.3645409,32.7677983 Z M30.6316746,32.7677983 C29.9557916,32.7677983 29.4078802,32.1981648 29.4078802,31.4954863 C29.4078802,30.7928077 29.9557916,30.2231742 30.6316746,30.2231742 C31.3075576,30.2231742 31.855469,30.7928077 31.855469,31.4954863 C31.854873,32.197908 31.3073105,32.7671786 30.6316746,32.7677983 Z" id="Shape"></path>
                </g>
            </g>
        </g>
    </g>
</svg>

<svg xmlns="http://www.w3.org/2000/svg" width="37" height="35"><title>Recurso 2</title><desc>Created with Sketch.</desc><g fill="none"><g fill="#00D0D2" fill-rule="nonzero"><g><g><path d="M36.5 12.24c-.45-.64-1.16-1.02-1.93-1.02H12.72c-.03-.1-.07-.17-.1-.26-.42-1.07-.86-2.18-1.22-3.3-.86-2.64-2.7-4.8-5.46-6.4H5.9C4.6.67 3.15.12 1.57 0 1.06-.02.58-.02.25.35c-.32.38-.27.9-.18 1.43C.3 3.1.8 4.35 1.27 5.5l.05.08c2.15 3.48 5.13 5.5 8.83 6.02.14 0 .2.06.4.44.63 1.27 1.12 2.62 1.46 4 .6 2.4.74 4.87.43 7.3 0 .02 0 .03 0 .05-.27 1.33-.63 2.64-1.1 3.92-.32.95-.7 1.88-1.17 2.77-.03.03-.05.08-.07.13-.3.62-.05 1.35.52 1.64.58.3 1.28.05 1.57-.55v-.04c.32-.65.1-.22.3-.7.63-1.3 1.13-2.66 1.5-4.06h17.55c1.5 0 2.8-1.1 3.15-2.63l2.22-9.42c.2-.77.04-1.6-.42-2.24zM8.92 8.94C7.22 8.28 3.32 6.4 2.6 3.1c-.04-.14 0-.3.1-.4.1-.1.23-.13.37-.1 4.03 1 5.75 4.26 6.35 5.8.06.16.03.33-.08.45-.1.1-.27.15-.42.1zm26.44 5.1l-2.23 9.4c-.18.78-.83 1.32-1.58 1.32H14.4c.03-.1.05-.2.06-.3.14-.82.23-1.65.3-2.48h6.84c.28 0 .82-.43.82-.96s-.54-.96-.82-.96h-6.8c-.02-.86-.08-1.72-.2-2.58H25.5c.3 0 .88-.43.88-.96s-.56-.96-.88-.96H14.24c-.18-.75-.4-1.47-.7-2.18-.05-.13-.1-.26-.15-.4h21.17c.26 0 .5.13.65.35.15.2.2.46.14.7zM14.05 8.7c0 .47.08.93.18 1.4.08.3.18.72.44.85h.03c.26.13.5-.07.76-.3 1.07-.98 1.8-2.27 2.2-3.85.43-1.54.46-3.18.08-4.86-.1-.4-.2-.77-.47-.9-.27-.13-.53.1-.78.33-1.85 1.8-2.68 4.2-2.47 7.15l.02.17zm2.5-5.53c.05-.08.13-.1.2-.07.08.03.13.13.14.24.02 1.03-.08 1.96-.33 2.75v.02c-.3 1.1-.67 2.03-1.12 2.7-.05.1-.13.13-.2.1-.08-.05-.13-.14-.14-.25-.07-2.1.4-3.92 1.45-5.5zM10 13.84c.03-.43-.26-.77-.6-1.08-2.3-2.13-6.24-2.36-8.78-.5-.15.1-.6.42-.62.93-.02.5.38.85.52.97C1.72 15.2 3.2 15.85 4.76 16h.03c1.66.07 3.17-.34 4.47-1.2.36-.25.7-.53.73-.96zm-2.6.02c-.8.2-1.65.27-2.5.22-.8-.05-1.6-.23-2.37-.54-.1-.03-.15-.12-.15-.22s.08-.2.18-.2c1.62-.42 3.32-.3 4.87.3.1.05.15.14.15.24 0 .1-.08.18-.18.2zM30.63 28c-.15 0-.3 0-.46.03H18.83c-.16-.02-.3-.03-.47-.03-1.5 0-2.82 1.04-3.23 2.54-.4 1.5.18 3.1 1.45 3.93 1.28.83 2.93.67 4.04-.37 1.12-1.05 1.43-2.73.77-4.14h6.22c-.66 1.4-.35 3.1.77 4.13 1.1 1.04 2.75 1.2 4.02.36 1.27-.83 1.86-2.43 1.45-3.93-.4-1.5-1.73-2.53-3.23-2.53zm-12.27 4.77c-.67 0-1.22-.57-1.22-1.27 0-.7.55-1.28 1.22-1.28.68 0 1.23.57 1.23 1.28 0 .7-.56 1.27-1.24 1.27zm12.27 0c-.67 0-1.22-.57-1.22-1.27 0-.7.56-1.28 1.23-1.28.68 0 1.23.57 1.23 1.28 0 .7-.55 1.27-1.23 1.27z"/></g></g></g></g></svg>
